!!!COM: five-for-fighting
!!!OTL: 100-years
!!!RNB: hooktheoryid: RZwxKNrPged
**kern	**text
*clefG2	*
*k[f#]	*
*M4/4	*
=1	=1
4r	G
8gg	.
4gg	.
4b	.
[8cc	.
=2	=2
4cc]	C
8cc	.
8b	.
8cc	.
4dd	.
8r	.
=3	=3
4r	Amin7
8gg	.
4gg	.
4b	.
[8cc	.
=4	=4
4cc]	Dsus4
8cc	.
8b	.
8cc	.
8dd	.
8cc	.
[8b	.
=5	=5
8b]	G/B
4gg	.
4gg	.
4dd	.
[8b	.
=6	=6
2b]	Em
8b	.
8cc	.
8dd	.
[8ee	.
=7	=7
4ee]	Amin7
8b	.
4b	.
4b	.
[8b	.
=8	=8
8b]	G/D
8a	.
8b	.
4dd	Dsus4
4dd	D
8r	.
*-	*-